app/client/src/assets/icons/blueprintjs/16px/folder-shared-open.svg

<svg xmlns="http://www.w3.org/2000/svg" xml:space="preserve" viewBox="0 0 16 16"><path fill-rule="evenodd" d="m13.02 10.22-.9.9-.01-.01c-.54.55-1.28.89-2.11.89-1.66 0-3-1.34-3-3 0-.77.3-1.47.78-2H4a.99.99 0 0 0-.94.69l-2 6c-.04.09-.06.2-.06.31 0 .55.45 1 1 1h11c.44 0 .81-.29.94-.69l1.11-3.32c-.01 0-.03.01-.05.01-.77 0-1.45-.3-1.98-.78zM2.06 6.69c.14-.4.5-.69.94-.69h5.76l.01-.01C8.3 5.46 8 4.77 8 4H6.41l-1.7-1.71A.997.997 0 0 0 4 2H1c-.55 0-1 .45-1 1v9.84l2.05-6.15h.01zM15 3h-4c-.55 0-1 .45-1 1s.45 1 1 1h1.59l-3.3 3.29a1.003 1.003 0 0 0 1.42 1.42L14 6.41V8c0 .55.45 1 1 1s1-.45 1-1V4c0-.55-.45-1-1-1z" clip-rule="evenodd"/></svg>

<?xml version="1.0" encoding="utf-8"?>
<!-- Generator: Adobe Illustrator 18.0.0, SVG Export Plug-In . SVG Version: 6.00 Build 0)  -->
<svg version="1.1" id="Layer_1" xmlns="http://www.w3.org/2000/svg" xmlns:xlink="http://www.w3.org/1999/xlink" x="0px" y="0px"
	 viewBox="0 0 16 16" enable-background="new 0 0 16 16" xml:space="preserve">
<g id="folder_open_shared_2_">
	<g>
		<path fill-rule="evenodd" clip-rule="evenodd" d="M13.02,10.22l-0.9,0.9l-0.01-0.01C11.57,11.66,10.83,12,10,12
			c-1.66,0-3-1.34-3-3c0-0.77,0.3-1.47,0.78-2H4C3.56,7,3.19,7.29,3.06,7.69l0,0l-2,6l0,0C1.02,13.78,1,13.89,1,14
			c0,0.55,0.45,1,1,1h11c0.44,0,0.81-0.29,0.94-0.69l0,0l1.11-3.32C15.04,10.99,15.02,11,15,11C14.23,11,13.55,10.7,13.02,10.22z
			 M2.06,6.69C2.2,6.29,2.56,6,3,6h5.76l0.01-0.01C8.3,5.46,8,4.77,8,4H6.41L4.71,2.29C4.53,2.11,4.28,2,4,2H1C0.45,2,0,2.45,0,3
			v9.84l2.05-6.15L2.06,6.69z M15,3h-4c-0.55,0-1,0.45-1,1s0.45,1,1,1h1.59L9.29,8.29C9.11,8.47,9,8.72,9,9c0,0.55,0.45,1,1,1
			c0.28,0,0.53-0.11,0.71-0.29L14,6.41V8c0,0.55,0.45,1,1,1s1-0.45,1-1V4C16,3.45,15.55,3,15,3z"/>
	</g>
</g>
</svg>
